X: 57
T: Fang yang
L: 1/8
M: 2/4
K: G
B B/ d/B2 [I:setbarnb 1]| 
B B/ E/D2 | 
E GG2 | 
B G F E | 
D4 | 
D E D E | 
d B B d | 
G G B, D | 
A G F E | 
D4 |]

@@@ Tune index: 8931
